X:202
T: Ostergesang
N: A0554A
O: Europa, Mitteleuropa, Deutschland
N: Triller 1555
R: Romanze, Ballade, Lied, religioeses Lied
M: 3/2
L: 1/2
K: F
f | f2f | e2e | f2d | c2
c | def | e2d | c2B | A2
G | A2A | c2c | A2G | F2
F | A2B | AG2 | F2

